X:7
T:Angeline the Baker
C: Parenthesized chords are w/capo on second fret.
M:4/4
K:D
L: 1/8
|: "D(C)" A2 B2 d3 A | "Bm(Am)" B2 d6 | "D(C)" A2 B2 dB A2 | "G(F)" B8 |
   "D(C)" A2 B2 d3 e | "Bm(Am)" f2 e2 d3 e | f2 e2 "G" d2 B2 | "A(G)" A4 A4 :|
|: "D(C)" a2 f2 e2 de | f2 e2 d4 | a2 f2        e2 d2 | "Bm(Am)" B4 B4 |
   "D(C)" a2 f2 e2 de | f2 e2 d4 | f2 e2 "G(F)" d2 B2 | "A(G)" A4 A4 :|

